X:71
M:6/8
L:1/8
Q:3/8=105
K:D
c/d/|ecA dcd|ecA d2 A|BGB AFA|BGE E2 c/d/|\
ecA dcd|ecA d2 A|dcB AFd|AFD D2:|

